icons/image-mountains.svg

<svg xmlns="http://www.w3.org/2000/svg" viewBox="0 0 24 24" fill="currentColor">
  <path d="M3 17V7c0-2.2 1.8-4 4-4h10c2.2 0 4 1.8 4 4v10c0 2.2-1.8 4-4 4H7c-2.3 0-4-1.8-4-4Z"/>
  <path d="M15.5 10c.8284 0 1.5-.67157 1.5-1.5S16.3284 7 15.5 7 14 7.67157 14 8.5s.6716 1.5 1.5 1.5Z"/>
  <path d="m3 13.7001 3.5-3.5c.8-.8 2-.8 2.8 0l5.3 5.3c.8.8 2 .8 2.8 0l3.5-3.5"/>
  <path d="M7 3.75C5.21421 3.75 3.75 5.21421 3.75 7v4.8894l2.21967-2.21963c1.09289-1.0929 2.76777-1.0929 3.86066 0l5.29997 5.30003c.5071.5071 1.2323.5071 1.7394 0l3.3803-3.3804V7c0-1.78579-1.4642-3.25-3.25-3.25H7Zm13.25 9.9607-2.3197 2.3197c-1.0929 1.0929-2.7678 1.0929-3.8606 0l-5.30003-5.3c-.50711-.5071-1.23224-.5071-1.73934 0L3.75 14.0108V17c0 1.7981 1.37646 3.25 3.25 3.25h10c1.7858 0 3.25-1.4642 3.25-3.25v-3.2893ZM2.25 7c0-2.61421 2.13579-4.75 4.75-4.75h10c2.6142 0 4.75 2.13579 4.75 4.75v10c0 2.6142-2.1358 4.75-4.75 4.75H7c-2.72646 0-4.75-2.1481-4.75-4.75V7Zm13.25.75c-.4142 0-.75.33579-.75.75s.3358.75.75.75.75-.33579.75-.75-.3358-.75-.75-.75Zm-2.25.75c0-1.24264 1.0074-2.25 2.25-2.25s2.25 1.00736 2.25 2.25-1.0074 2.25-2.25 2.25-2.25-1.00736-2.25-2.25Z"/>
</svg>

<svg width="24" height="24" viewBox="0 0 24 24" fill="none" xmlns="http://www.w3.org/2000/svg">
<path d="M3 17V7C3 4.8 4.8 3 7 3H17C19.2 3 21 4.8 21 7V17C21 19.2 19.2 21 17 21H7C4.7 21 3 19.2 3 17Z" stroke="black" stroke-width="1.5" stroke-miterlimit="10"/>
<path d="M15.5 10C16.3284 10 17 9.32843 17 8.5C17 7.67157 16.3284 7 15.5 7C14.6716 7 14 7.67157 14 8.5C14 9.32843 14.6716 10 15.5 10Z" stroke="black" stroke-width="1.5" stroke-miterlimit="10"/>
<path d="M3 13.7001L6.5 10.2001C7.3 9.4001 8.5 9.4001 9.3 10.2001L14.6 15.5001C15.4 16.3001 16.6 16.3001 17.4 15.5001L20.9 12.0001" stroke="black" stroke-width="1.5" stroke-miterlimit="10"/>
<path fill-rule="evenodd" clip-rule="evenodd" d="M7 3.75C5.21421 3.75 3.75 5.21421 3.75 7V11.8894L5.96967 9.66977C7.06256 8.57687 8.73744 8.57687 9.83033 9.66977L15.1303 14.9698C15.6374 15.4769 16.3626 15.4769 16.8697 14.9698L20.25 11.5894V7C20.25 5.21421 18.7858 3.75 17 3.75H7ZM20.25 13.7107L17.9303 16.0304C16.8374 17.1233 15.1625 17.1233 14.0697 16.0304L8.76967 10.7304C8.26256 10.2233 7.53743 10.2233 7.03033 10.7304L3.75 14.0108V17C3.75 18.7981 5.12646 20.25 7 20.25H17C18.7858 20.25 20.25 18.7858 20.25 17V13.7107ZM2.25 7C2.25 4.38579 4.38579 2.25 7 2.25H17C19.6142 2.25 21.75 4.38579 21.75 7V17C21.75 19.6142 19.6142 21.75 17 21.75H7C4.27354 21.75 2.25 19.6019 2.25 17V7ZM15.5 7.75C15.0858 7.75 14.75 8.08579 14.75 8.5C14.75 8.91421 15.0858 9.25 15.5 9.25C15.9142 9.25 16.25 8.91421 16.25 8.5C16.25 8.08579 15.9142 7.75 15.5 7.75ZM13.25 8.5C13.25 7.25736 14.2574 6.25 15.5 6.25C16.7426 6.25 17.75 7.25736 17.75 8.5C17.75 9.74264 16.7426 10.75 15.5 10.75C14.2574 10.75 13.25 9.74264 13.25 8.5Z" fill="black"/>
</svg>
